X:1
T:Palermo -- Hornpipe
Z:Bob Puckette <bpuckette:msn.com> 2003-3-10
R:hornpipe
B:Cole's 1000 Fiddle Tunes
M:2/4
L:1/16
K:A
((3uEFG)|AGAB Acea|edea ecBA|fedc dcBA|GABc BEFG|
AGAB Acea|ecea ecBA|fedc BAGB|A2c2A2:|
|:vcd|ecea ecea|fdfa fdfa|fedc dcBA|GABc .B2(cd)|
ecea ecea|fdfa fdfa|gfed cBAG|A2c2A2:|
